X:1
T:Who can count to eleven? [FPP MPP MPP MP]
T:Somewhat bouncy like a jig: 11/8=(3+3+3+2)/8
C:Eric Conrad
M:11/8
L:1/8
Q:3/8=100
K:Ador
% Simple i-IV-v-i Dorian mode progression
% Chords and relatives: i=Am (III=C); IV=D (ii=Bm); v=Em (VII=G); [vi0=F#dim]
%%text A Dorian
% Play with the next four lines (comment out/modify) to see how things work
%%MIDI beatstring fppmppmppmp   % rhythm: "xx 'xx 'xx '' = bum-dee-dee bum-dee-dee bum-dee-dee bum-dee
%%MIDI gchord Ghicigcigcg       % chord vamp
%%MIDI program 40               % violin/fiddle for melody
%%MIDI chordprog 105            % banjo for chords
P:A
|: z (3B/c/B/ \
| "Am"A3 Ace "Asus2"ABA AB/e/ | "G"d3 BdB GBd Bc | "D"d3 dfd "Am"cec A2 |
A3 Ace "Asus2"ABA AB/e/ | "G"d3 BdB BBd Bc | "D"d3 dfd "Am"cec A2 |
A3 ecA "G"GBd Gd | "Em"e3 ede "Bm"BdB Bd | "D"fdf d3 "Am"AcA AG |
"Em"B3 BGE "D"DFA FA | "Asus2"A2B A3 z3 :|
P:B
|: z2 | "Am"A3 A3 "Asus2"ABe a2 | "Em"e3 ebg ebg B2 | "Bm"d3 BdB "Asus2"ABA A2 |
"Am"A3 Ace "Asus2"ABe a2 | "Em"e3 ebg ebg B2 | "D"d3 fdf "Am"ecA A2 |
A3 Ace "G"dgB gB | "Em"egb egb "D"afd fd | "Bm"fdB fdB "Am"AcA AE |
"Em"GBE GBE "D"DFA DF | "Asus2"A3 ABA A3 :|
%%center \u00a9 2019 by Eric Conrad
%%text Licensed for general use under Creative Commons Attribution-ShareAlike 4.0 International Public License.
%%text License details are available on the web at "https://creativecommons.org/licenses/by-sa/4.0/legalcode".


